X:1
T:1. Berceuse (Lullaby)
T:1. Berceuse (Lullaby) 
T:Gabriel Fauré
C:Gabriel Fauré
%%score { 1 | 2 } { ( 3 6 ) | ( 4 5 ) }
L:1/8
Q:1/4=67
M:2/4
K:E
V:1 treble nm="Prima" snm="P."
V:2 treble 
V:3 bass nm="Seconda" snm="S."
V:6 bass 
V:4 bass 
V:5 bass 
V:1
"^Allegretto Moderato" z4 | z4 |!p! b2 b2- | b(gab | gefg) | (e2 B) z | b2 b2- | b(gab | %8
!<(! gee'd')!<)! |!>(! (c'2 b)!>)! z |!p! f'2 f'2- | f'(d'e'f' | d'bc'd') | (b2 f) z | %14
"_cresc." f'2 f'2- | f'(g'e'c' | e'f'd'b) |!>(! !fermata!d'2 !fermata!c'2!>)! |!p! b2 b2- | b(gab | %20
 gefg) | (e2 B) z | b2 b2- | b(gab |!<(! gee'd')!<)! |!>(! (c'2 b) z!>)! |"_cresc." e'2 e'2- | %27
 e'(c'ba) | e'2 e'2- | e'(c'ba) |!f! b2!8va(! b'2- | b'(g'f'e' |!>(! !fermata!g'2 f'2)!>)! | %33
!p! e'2- e' z!8va)! ||[K:C]!p!"_sempre dolce" e2 e2- | e(cde | e2 c2-) | cGAc | z4 | %39
 z (e' !>!g'2-) | g' x x2 | fede | f2 f2- | f(def | f2 d2-) | dABd | z4 | z (f' !>!a'2-) | a'2 x2 | %49
 g^fef |"_cresc." g2 g2- | g(e^fg) | g2 e2- | eB^ce | z4 | z!8va(! g' !>!b'2- | %56
!f!"^Rall." b' (!fermata!^f'!fermata![f'b']!fermata![e'a'] | %57
!>(! !fermata![^d'^g']!fermata![^c'^f']!fermata![ad']!>)!!fermata![ab]) || %58
[K:E]"^a Tempo" z/ (b/e'/c'/ d'2) | z/ (b/e'/c'/ d'2) | z/ (b/e'/c'/ d'2) | z/ (b/e'/c'/ d'2) | %62
 z/ (b/e'/c'/ d'2) | z/ (b/e'/c'/ d'2) | z/ (b/e'/c'/ d'2) | z/ (b/e'/c'/ e'2) | %66
 z/ (e'/a'/f'/ g'2) | z/ (e'/a'/f'/ g'2) | z/ (e'/a'/f'/ g'2) | z/ (e'/a'/e'/ [e'=g']2)!8va)! | %70
 z/ (^g/b/g/ [gc']2) | z/!p! (!fermata!a/=d'/!fermata!a/ [a^d']2) | [be'] z!p! b2- | b(gab | gefg | %75
 e2 B) z |!pp! z/!8va(! (b/e'/c'/ d'2) | z/ (b/e'/c'/ d'2) | z/ (b/e'/c'/ d'2) | %79
"_dim." z/ (b/e'/c'/ d'2) | z/ (b/e'/c'/ d'2) | z/ (b/e'/c'/ d'2) | [be']2!8va)! z2 |] %83
V:2
 z4 | z4 | B2 B2- | B(GAB | GEFG) | E"^(  )" z z2 | B2 B2- | B(GAB | GEed) | (c2 B) z | f2 f2- | %11
 f(def | dBcd) | B"^(  )" z z2 | f2 f2- | f(gec | efdB) | d2 c2 | B2 B2- | B(GAB | GEFG) | %21
 E"^(  )" z z2 | B2 B2- | B(GAB | GEed) | (c2 B) z | e2 e2- | e(cBA) | e2 e2- | e(cBA) | B2 b2- | %31
 b(gfe | g2 f2) | e2- e z ||[K:C] z4 | z4 | z4 | z4 | Bd !>!g2- | g(e !>!g2-) | %40
 g _Bd[I:staff -1]g |[I:staff +1] z4 | z4 | z4 | z4 | z4 | ce !>!a2- | a(f !>!a2-) | %48
 a ce[I:staff -1]a |[I:staff +1] z4 | z4 | z4 | z4 | z4 |!<(! d^f !>!b2- | b!<)!g !>!b2- | %56
 b (^f^d'^c' | ba^f^d) ||[K:E] (([eg]2 [da]2)) | (([eg]2 [da]2)) | (([eg]2 [da]2)) | %61
 (([eg]2 [da]2)) | (([eg]2 [da]2)) | (([eg]2 [da]2)) | (([eg]2 [da]2)) | (([eg]2 [=dg]2)) | %66
 (([ac']2 [g=d']2)) | (([ac']2 [g=d']2)) | (([ac']2 [g=d']2)) | (.[ac']2 .c'2) | (e2 ^e2) | %71
 (.f2 .f2) | g z B2- | B(GAB | GEFG | E)"^(  )" z z2 | (([eg]2 [da]2)) | (([eg]2 [da]2)) | %78
 (([eg]2 [da]2)) | (([eg]2 [da]2)) | (([eg]2 [da]2)) | (([eg]2 [da]2)) | [eg]2 z2 |] %83
V:3
!pp! (G,/B,/E/C/ [A,D]2) | (G,/B,/E/C/ [A,D]2) | (G,/B,/E/C/ [A,D]2) | (G,/B,/E/C/ [A,D]2) | %4
 (G,/B,/E/C/ [A,D]2) | (G,/B,/E/C/ [A,D]2) | (G,/B,/E/C/ [A,D]2) | (G,/B,/E/C/ [A,D]2) | %8
[K:treble]!<(! (G,/B,/E/B,/ [B,EG]2)!<)! |!>(! (^A,/E/F/E/ [B,D]2)!>)! |!pp! (D/F/B/G/ [E^A]2) | %11
 (D/F/B/G/ [E^A]2) | (D/F/B/G/ [E^A]2) | (D/F/B/G/ [E^A]2) |"_poco cresc." (D/F/B/F/ [CFc]2) | %15
 (F/G/^B/G/ [EGc])"^(  )" z | (E/F/c/F/ [DF!courtesy!=B])"^(  )" z |!>(! (B,/D/F/D/ [B,CG]2)!>)! | %18
!p! (!>!G2 !>!F2 | ([G,E]/)B,/E/C/ [A,D]2) | (G,/B,/E/C/ [A,D]2) | (G,/B,/E/C/ [A,D]2) | %22
 (G,/B,/E/C/ [A,D]2) | (G,/B,/E/C/ [A,D]2) | (G,/B,/E/B,/ [B,EG]2) | (^A,/E/F/E/ [B,D]2) | %26
 (B,/D/"_cresc."F/D/ [B,=DE]2) | (C/^E/G/E/ [C=EF]2) | (=D/^^F/A/F/ [DEG]2) | %29
 (E/G/B/G/ [EA])"^(  )" z |!f! (F/^A/c/A/ [F=AB]2) | z/ (G/B/G/ [EGc]2) | %32
!>(! (C/G/c/G/ [DAB]2)!>)! |!p! z/ (G,/E/B,/ G/E/B,/G,/) || %34
[K:C]"_sempre dolce"!p! z z/ (G,/ E/C/G/E/) | z z/ (A,/ E/C/A/E/) | z z/ (G,/ E/C/G/E/) | %37
 z z/ (G,/ E/C/G/E/) | z z/ (B,/ G/D/B/G/) | z z/ (B,/ G/E/B/G/) | z z/ (_B,/ G/E/_B/G/) | %41
 z z/ (A,/ G/^C/A/G/) | z z/ (A,/ F/D/A/F/) | z z/ (_B,/ F/D/_B/F/) | z z/ (A,/ F/D/A/F/) | %45
 z z/ (A,/ F/D/A/F/) | z z/ (A,/ E/C/A/E/) | z z/ (A,/ F/D/A/F/) | z z/ (A,/ E/C/A/E/) | %49
 z z/ (A,/ ^D/B,/A/D/) |"_cresc." z z/ (B,/ G/E/B/G/) | z z/ (C/ G/E/c/G/) | z z/ (B,/ G/E/B/G/) | %53
 z z/ (B,/ G/E/B/G/) |!<(! z z/ (B,/ ^F/D/B/F/) | z z/!<)! (B,/ E/^C/G/E/) | %56
!f! z/"^Rall." (B,/^F/^D/ B/F/A/E/ | %57
!>(! ^G/^D/^F/^C/ D/!fermata!A,/B,/!>)![I:staff +1]!fermata!^F,/) || %58
[K:E]"^a Tempo""_dolce."!mp![I:staff -1] B2 B2- | B(GAB | GEFG | E2) z2 | B2 B2- | B(GAB | GEFG | %65
 E2) z2 |{/x} !arpeggio!e2 e2- | e(c=de | cABc | A) ([Ee][Fd][^^Fc] | B2 c2 | =d2 !fermata!^d2) | %72
 z/!pp! (B,/E/C/ [A,D]2) | (G,/B,/E/C/ [A,D]2) | (G,/B,/E/C/ [A,D]2) | (G,/B,/E/C/ [A,D]2) | %76
!p! B2 B2- | B(GAB | GEFG |"_dim." E2 B,) z | (E2 B,) z | (E2 B,) z | !arpeggio![B,EB]2 z2 |] %83
V:4
!ped! (E,,B,,!ped-up!F,B,,) |!ped! (E,,B,,!ped-up!F,B,,) |!ped! (E,,B,,!ped-up!F,B,,) | %3
!ped! (E,,B,,!ped-up!F,B,,) |!ped! (E,,B,,!ped-up!F,B,,) |!ped! (E,,B,,!ped-up!F,B,,) | %6
!ped! (E,,B,,!ped-up!F,B,,) |!ped! (E,,B,,!ped-up!F,B,,) |!ped! (E,,B,,)!ped-up!(C,,C,) | %9
!ped! x2!ped-up! F,2 |!ped! (B,,F,!ped-up!CF,) |!ped! (B,,F,!ped-up!CF,) | %12
!ped! (B,,F,!ped-up!CF,) |!ped! (B,,F,!ped-up!CF,) |!ped! (B,,F,)!ped-up!(A,,A,) | %15
!ped! (G,,D,)!ped-up!(C,C) |!ped! (^A,,F,)!ped-up!(B,,B,) |!ped! (D,,D,)!ped-up!(E,,!fermata!E,) | %18
!ped! (D,,B,,!ped-up!A,B,,) |!ped! (E,,B,,!ped-up!F,B,,) |!ped! (E,,B,,!ped-up!F,B,,) | %21
!ped! (E,,B,,!ped-up!F,B,,) |!ped! (E,,B,,!ped-up!F,B,,) |!ped! (E,,B,,!ped-up!F,B,,) | %24
!ped! (E,,B,,)!ped-up!(C,,C,) |!ped! x2!ped-up! F,2 |!ped! (G,,E,!ped-up!!ped!G,E,)!ped-up! | %27
!ped! (A,,E,!ped-up!!ped!A,E,)!ped-up! |!ped! (B,,E,!ped-up!!ped!B,E,)!ped-up! | %29
!ped! (C,E,!ped-up!!ped!CE,)!ped-up! |!ped! (D,B,!ped-up!!ped!DB,)!ped-up! | %31
!ped! (E,B,)!ped-up!!ped!(C,C)!ped-up! |!ped! (A,,A,)!ped-up!!ped! (B,,,!fermata!B,,)!ped-up! | %33
!ped! [E,,E,]2- [E,,E,] z!ped-up! ||[K:C]!ped!(xG,) x2!ped-up! |!ped!(xA,) x2!ped-up! | %36
!ped!(xG,) x2!ped-up! |!ped!(xG,) x2!ped-up! |!ped!(xB,) x2!ped-up! |!ped!(xB,) x2!ped-up! | %40
!ped!(x_B,) x2!ped-up! |!ped!(xA,) x2!ped-up! |!ped!(xA,) x2!ped-up! |!ped!(x_B,) x2!ped-up! | %44
!ped!(xA,) x2!ped-up! |!ped!(xA,) x2!ped-up! |!ped!(xA,) x2!ped-up! |!ped!(xA,) x2!ped-up! | %48
!ped!(xA,) x2!ped-up! |!ped!(xA,) x2!ped-up! |!ped!(xB,) x2!ped-up! |!ped!(xC) x2!ped-up! | %52
!ped!(xB,) x2!ped-up! |!ped!(xB,) x2!ped-up! |!ped!(xB,) x2!ped-up! |!ped!(xB,) x2!ped-up! | %56
!ped! z ^F,B,!ped-up!!ped!^C!ped-up! | %57
!ped! B,!ped-up!!ped!A,!ped-up!!ped!^F,!ped-up!!ped!^D,!ped-up! || %58
[K:E]!ped! (E,,!p!B,,!ped-up!F,B,,) |!ped! (E,,B,,!ped-up!F,B,,) |!ped! (E,,B,,!ped-up!F,B,,) | %61
!ped! E,,B,,!ped-up!F,B,, |!ped! G,E,!ped-up!F,G, |!ped! E,2!ped-up! F,2 | %64
!ped! (E,,B,,!ped-up!F,B,,) |!ped! (E,,B,,!ped-up!E,B,,) |!ped! (A,,E,!ped-up!B,E,) | %67
!ped! (A,,E,!ped-up!B,E,) |!ped! (A,,E,!ped-up!B,E,) |!ped! (A,,E,)!ped-up!!mp! (^A,,^A,) | %70
!ped! z [B,,B,]!ped-up!!ped! z [B,,,B,,]!ped-up! | %71
!ped! z [B,,B,]!ped-up!!ped! z !fermata![B,,,B,,]!ped-up! |!ped! (E,,B,,!ped-up!F,B,,) | %73
!ped! (E,,B,,!ped-up!F,B,,) |!ped! (E,,B,,!ped-up!F,B,,) |!ped! (E,,B,,!ped-up!F,B,,) | %76
!p!!ped! (E,,B,,!ped-up!F,B,,) |!ped! (E,,B,,!ped-up!F,B,,) |!ped! E,,B,,!ped-up!F,B,, | %79
!ped! G,E,!ped-up!F,G, |!ped! z E,!ped-up!F,!fermata!G, | %81
!ped! !fermata!z !fermata!E,!ped-up!!fermata!F,!fermata!G, |!ped! !arpeggio![E,,G,]2 z2!ped-up! |] %83
V:5
 x4 | x4 | x4 | x4 | x4 | x4 | x4 | x4 | x4 | (F,,F,)(B,,,B,,) | x4 | x4 | x4 | x4 | x4 | x4 | x4 | %17
 x4 | x4 | x4 | x4 | x4 | x4 | x4 | x4 | (F,,F,)(B,,,B,,) | x4 | x4 | x4 | x4 | x4 | x4 | x4 | %33
 x4 ||[K:C] C,4 | A,,4 | C,4 | E,4 | G,4 | E,4 | E,,4 | A,,4 | D,4 | _B,,4 | D,4 | F,4 | A,,4 | %47
 D,4 | A,,4 | B,,4 | E,4 | C,4 | E,4 | G,4 | B,,4 | E,4 | B,,4- | B,,4 ||[K:E] x4 | x4 | x4 | x4 | %62
 E,,B,,F,B,, | E,,B,,F,B,, | x4 | x4 | x4 | x4 | x4 | x4 | x4 | x4 | x4 | x4 | x4 | x4 | x4 | x4 | %78
 x4 | E,,B,,F,B,, | E,,B,,F,B,, | E,,B,,F,B,, | x4 |] %83
V:6
 x4 | x4 | x4 | x4 | x4 | x4 | x4 | x4 |[K:treble] x4 | x4 | x4 | x4 | x4 | x4 | x4 | x4 | x4 | %17
 x4 | G/A,/B,/A,/ x2 | x4 | G,2 x2 | G,2 x2 | G,2 x2 | G,2 x2 | G,2 x2 | ^A,2 x2 | B,2 x2 | C2 x2 | %28
 =D2 x2 | E2 x2 | F2 x2 | x4 | C2 x2 | x4 ||[K:C] x4 | x4 | x4 | x4 | x4 | x4 | x4 | x4 | x4 | x4 | %44
 x4 | x4 | x4 | x4 | x4 | x4 | x4 | x4 | x4 | x4 | x4 | x4 | x4 | x4 ||[K:E] x4 | x4 | B,2 B,2- | %61
 B,[I:staff +1]G,A,B, | x4 | x4 |[I:staff -1] B,2 B,2- | B,(B,C=D) | C z z2 | x4 | E2 E2- | E x3 | %70
 G^FG^E | AGAB, | x4 | G,2 x2 | G,2 x2 | G,2 x2 | x4 | B,2 B,2- | B,[I:staff +1]G,A,B, | x4 | x4 | %81
 x4 | x4 |] %83

